imgs/planet.svg

<svg width="57" height="57" viewBox="0 0 57 57" fill="none" xmlns="http://www.w3.org/2000/svg">
<path d="M51.3075 36.8727C51.037 37.8974 50.7044 38.8966 50.3132 39.8677C54.6351 46.9762 55.343 51.4808 53.9138 52.9112C53.3691 53.4559 52.6052 53.7215 51.578 53.7215C51.5756 53.7215 51.5743 53.7215 51.5719 53.7215C48.7353 53.7191 44.6657 51.7476 40.3926 48.9854C46.045 44.7586 49.7162 38.0205 49.7162 30.4369C49.7162 17.6711 39.3313 7.28622 26.5656 7.28622C18.9783 7.28622 12.2402 10.9623 8.01704 16.6208C5.12199 11.9736 3.41737 7.92469 3.41494 5.22582C3.41372 4.25471 3.64035 3.5346 4.08874 3.08621C5.51921 1.65697 10.0251 2.36489 17.1372 6.68918C18.1083 6.29928 19.1074 5.96542 20.1321 5.69492C11.5956 0.139991 5.18048 -1.45131 2.36585 1.36332C1.44348 2.28569 0.976811 3.58578 0.97803 5.22826C0.984122 11.9176 8.96378 24.3531 20.8279 36.1685C25.9892 41.3505 42.715 56.1475 51.5695 56.1572C51.5719 56.1572 51.5756 56.1572 51.578 56.1572C53.2595 56.1572 54.6254 55.6455 55.6367 54.6341C58.4513 51.8183 56.86 45.4056 51.3075 36.8727ZM36.3132 30.4369C37.6584 30.4369 38.7501 31.5274 38.7501 32.8738C38.7501 34.2189 37.6596 35.3107 36.3132 35.3107C34.968 35.3107 33.8763 34.2202 33.8763 32.8738C33.8775 31.5286 34.968 30.4369 36.3132 30.4369ZM26.5656 17.0339C28.5845 17.0339 30.2209 18.6702 30.2209 20.6892C30.2209 22.7082 28.5845 24.3446 26.5656 24.3446C24.5466 24.3446 22.9102 22.7082 22.9102 20.6892C22.9114 18.6702 24.5478 17.0339 26.5656 17.0339Z" fill="#62D5B4"/>
<path d="M5.26587 21.3765C4.07666 24.1606 3.41504 27.2226 3.41504 30.4369C3.41504 43.2026 13.7999 53.5875 26.5657 53.5875C29.8153 53.5875 32.9077 52.9076 35.7175 51.6928C27.0348 45.7187 19.2269 38.0145 19.1014 37.8877C13.4734 32.2829 8.76283 26.6061 5.26587 21.3765Z" fill="#93E7CF"/>
</svg>

<svg width="57" height="57" fill="none" xmlns="http://www.w3.org/2000/svg"><path d="M51.307 36.873a25.28 25.28 0 01-.994 2.995c4.322 7.108 5.03 11.613 3.6 13.043-.544.545-1.308.81-2.335.81h-.006c-2.837-.002-6.906-1.973-11.18-4.736 5.653-4.226 9.324-10.965 9.324-18.548 0-12.766-10.385-23.15-23.15-23.15-7.588 0-14.326 3.675-18.549 9.334-2.895-4.647-4.6-8.696-4.602-11.395-.001-.971.225-1.691.674-2.14 1.43-1.429 5.936-.721 13.048 3.603.971-.39 1.97-.724 2.995-.994C11.596.14 5.18-1.451 2.366 1.363 1.443 2.286.976 3.586.978 5.228c.006 6.69 7.986 19.125 19.85 30.94 5.161 5.182 21.887 19.98 30.741 19.99h.009c1.681 0 3.047-.513 4.059-1.524 2.814-2.816 1.223-9.228-4.33-17.761zm-14.994-6.436a2.437 2.437 0 110 4.874 2.437 2.437 0 010-4.874zm-9.747-13.403a3.655 3.655 0 110 7.31 3.655 3.655 0 010-7.31z" fill="#62D5B4"/><path d="M5.266 21.377a23.011 23.011 0 00-1.851 9.06c0 12.766 10.385 23.15 23.15 23.15 3.25 0 6.343-.68 9.152-1.894-8.682-5.974-16.49-13.678-16.616-13.805-5.628-5.605-10.338-11.282-13.835-16.511z" fill="#93E7CF"/></svg>
